public/images/logo.svg

<svg width="60" height="60" viewBox="0 0 60 60" version="1.1" xmlns="http://www.w3.org/2000/svg" xmlns:xlink="http://www.w3.org/1999/xlink"><title>Layton Hayes Logo</title><g id="Export" stroke="none" stroke-width="1" fill="none" fill-rule="evenodd"><g id="logo" stroke="#FFF" stroke-width="3"><path d="M31.1533,54.3467 C30.6703,54.3467 30.1853,54.2227 29.7513,53.9767 L11.8673,43.8907 C10.9833,43.3867 10.2503,42.4487 10.2503,41.4307 L10.2503,21.2627 C10.2503,20.2447 10.9833,19.3057 11.8673,18.8017 L29.6583,8.7177 C30.0913,8.4707 30.6223,8.3467 31.1063,8.3467 C31.5903,8.3467 32.0963,8.4707 32.5323,8.7177 L50.1293,18.8017 C51.0123,19.3057 51.4583,20.2447 51.4583,21.2627 L51.4583,41.4307 C51.4583,42.4487 51.0243,43.3867 50.1403,43.8907 L32.4983,53.9767 C32.0663,54.2227 31.6363,54.3467 31.1533,54.3467 Z" id="Stroke-1"/><path d="M15.3198,22.8623 L29.3468,30.6663 C30.2308,31.1723 31.0938,32.0613 31.0938,33.0783 L31.0938,48.9373" id="Stroke-3" stroke-linecap="round"/><path d="M46.1641,31.46 L39.5881,35.119 L32.8371,38.874 C31.9531,39.38 31.0911,40.27 31.0911,41.286" id="Stroke-5" stroke-linecap="round"/></g></g></svg>

<svg width="60" height="60" xmlns="http://www.w3.org/2000/svg"><g stroke="#FFF" stroke-width="3" fill="none" fill-rule="evenodd"><path d="M31.153 54.347c-.483 0-.968-.124-1.402-.37L11.867 43.89c-.884-.504-1.617-1.442-1.617-2.46V21.263c0-1.018.733-1.957 1.617-2.461L29.658 8.718a3.003 3.003 0 0 1 1.448-.371c.484 0 .99.124 1.426.37L50.13 18.803c.883.504 1.33 1.443 1.33 2.46v20.169c0 1.018-.435 1.956-1.319 2.46L32.498 53.977c-.432.246-.862.37-1.345.37z"/><path d="M15.32 22.862l14.027 7.804c.884.506 1.747 1.395 1.747 2.412v15.86" stroke-linecap="round"/><path d="M46.164 31.46l-6.576 3.659-6.75 3.755c-.885.506-1.747 1.396-1.747 2.412" stroke-linecap="round"/></g></svg>
